src/status/24/microphone-sensitivity-muted-90-symbolic.svg

<?xml version="1.0" encoding="UTF-8" standalone="no"?>
<svg
   xmlns:dc="http://purl.org/dc/elements/1.1/"
   xmlns:cc="http://creativecommons.org/ns#"
   xmlns:rdf="http://www.w3.org/1999/02/22-rdf-syntax-ns#"
   xmlns:svg="http://www.w3.org/2000/svg"
   xmlns="http://www.w3.org/2000/svg"
   height="24"
   width="24"
   version="1.1"
   id="svg6">
  <metadata
     id="metadata12">
    <rdf:RDF>
      <cc:Work
         rdf:about="">
        <dc:format>image/svg+xml</dc:format>
        <dc:type
           rdf:resource="http://purl.org/dc/dcmitype/StillImage" />
        <dc:title></dc:title>
      </cc:Work>
    </rdf:RDF>
  </metadata>
  <defs
     id="defs10" />
  <path
     id="path2"
     d="M 6.3535156,4.7363281 5.4121094,5.6777344 18.140625,18.40625 19.082031,17.464844 c 0,0 -2.180989,-2.18099 -3.271484,-3.271485 C 15.934049,13.807529 15.997936,13.405109 16,13 v -2 h 1 v -1 h -2 v 3 c 0,0.117959 -0.02889,0.22611 -0.04297,0.339844 L 14,12.382812 V 7 C 14,5.892 13.108,5 12,5 10.892,5 10,5.892 10,7 V 8.3828125 Z M 7,10 v 1 h 1 v 2 c -0.00141,1.821959 1.2342241,3.41236 3,3.861328 V 19 h -1 v 1 h 4 v -1 h -1 v -2.138672 c 0.549282,-0.141303 1.062031,-0.398344 1.503906,-0.753906 L 13.792969,15.396484 C 13.29241,15.770942 12.675981,16 12,16 10.338,16 9,14.662 9,13 V 10.603516 L 8.3964844,10 Z m 3,1.603516 V 13 c 0,1.108 0.892,2 2,2 0.398899,0 0.766762,-0.118675 1.078125,-0.318359 z"
     style="color:#bebebe;overflow:visible;isolation:auto;mix-blend-mode:normal;fill:#363636;marker:none" />
</svg>

<svg xmlns="http://www.w3.org/2000/svg" width="24" height="24">
    <path d="m6.354 4.736-.942.942 12.729 12.728.941-.941-3.271-3.272c.123-.385.187-.788.189-1.193v-2h1v-1h-2v3c0 .118-.029.226-.043.34L14 12.383V7c0-1.108-.892-2-2-2s-2 .892-2 2v1.383ZM7 10v1h1v2a3.981 3.981 0 0 0 3 3.861V19h-1v1h4v-1h-1v-2.139a3.981 3.981 0 0 0 1.504-.754l-.711-.71A2.993 2.993 0 0 1 9 13v-2.397L8.396 10Zm3 1.604V13a1.996 1.996 0 0 0 3.078 1.682z" style="color:#bebebe;overflow:visible;isolation:auto;mix-blend-mode:normal;fill:#050505;opacity:.7;marker:none"/>
</svg>
